src/next/cmd/lc_entirecell.svg

<svg height="24" width="24" xmlns="http://www.w3.org/2000/svg" xmlns:xlink="http://www.w3.org/1999/xlink"><linearGradient id="a" gradientTransform="matrix(-2.1818422 0 0 1.090921 151.265 -11.646415)" gradientUnits="userSpaceOnUse" x1="53.332001" x2="53.332001" xlink:href="#e" y1="101.334" y2="117.3336"/><linearGradient id="b" gradientTransform="matrix(-2.1818422 0 0 1.090921 180.3555 -11.646415)" gradientUnits="userSpaceOnUse" x1="53.332001" x2="53.332001" xlink:href="#e" y1="101.334" y2="117.3336"/><linearGradient id="c" gradientUnits="userSpaceOnUse" x1="21.804773625" x2="21.804773625" y1="-5.03406509375" y2="18.99938820313"><stop offset="0" stop-color="#fff"/><stop offset="1" stop-color="#555"/></linearGradient><linearGradient id="d" gradientUnits="userSpaceOnUse" x1="21.804773625" x2="21.804773625" y1="-5.03406509375" y2="18.99938820313"><stop offset="0" stop-color="#5ca524"/><stop offset="1" stop-color="#58a11e" stop-opacity=".986274"/></linearGradient><linearGradient id="e"><stop offset="0" stop-color="#5c5c5c"/><stop offset="1" stop-color="#595959" stop-opacity=".488971"/></linearGradient><linearGradient id="f" gradientTransform="matrix(1.0629486 0 0 1.0434896 5.961683 9.602452)" gradientUnits="userSpaceOnUse" x1="46.048" x2="46.048" y1="128.01709" y2="16.6203"><stop offset="0" stop-color="#c7cdd7"/><stop offset="1" stop-color="#fff"/></linearGradient><linearGradient id="g" gradientTransform="matrix(1.0629487 0 0 1.3091052 .292763 -33.755894)" gradientUnits="userSpaceOnUse" x1="114.6638" x2="114.6638" y1="101.334" y2="112.0004"><stop offset="0" stop-color="#e1e4ea"/><stop offset="1" stop-color="#e1e4ea" stop-opacity=".084559"/></linearGradient><linearGradient id="h" gradientTransform="matrix(-2.1818422 0 0 1.090921 209.446 -11.646414)" gradientUnits="userSpaceOnUse" x1="53.332001" x2="53.332001" xlink:href="#e" y1="101.334" y2="117.3336"/><linearGradient id="i" gradientTransform="matrix(1.454525 0 0 .87271499 -.0056 22.102058)" gradientUnits="userSpaceOnUse" x1="8" x2="8" xlink:href="#e" y1="88" y2="108"/><linearGradient id="j" gradientTransform="matrix(1.4545249 0 0 .872715 116.3564 22.102057)" gradientUnits="userSpaceOnUse" x1="8" x2="8" xlink:href="#e" y1="88" y2="108"/><filter id="k" color-interpolation-filters="sRGB" height="1.306617" width="1.43589" x="-.217945" y="-.153309"><feGaussianBlur stdDeviation="3.1542391"/></filter><linearGradient id="l" gradientUnits="userSpaceOnUse" x1="32.81356" x2="28.745762" y1="44.474575" y2="19.254236"><stop offset="0" stop-color="#070707"/><stop offset="1" stop-color="#474747"/></linearGradient><linearGradient id="m" gradientTransform="matrix(.22377865 0 0 1.0434896 39.527644 9.602452)" gradientUnits="userSpaceOnUse" x1="46.048" x2="46.048" y1="128.01709" y2="16.6203"><stop offset="0" stop-color="#f2fdeb"/><stop offset="1" stop-color="#c8ffa5"/></linearGradient><linearGradient id="n" gradientTransform="matrix(.22377867 0 0 1.3091052 38.334187 -33.755894)" gradientUnits="userSpaceOnUse" x1="114.6638" x2="114.6638" y1="101.334" y2="112.0004"><stop offset="0" stop-color="#ddfec8"/><stop offset="1" stop-color="#dffecb" stop-opacity="0"/></linearGradient><text x="552.36987" y="98.810379"><tspan fill="#555" x="552.36987" y="115.61037"/></text><text x="284.18808" y="98.810379"><tspan fill="#555" x="284.18808" y="115.61037"/></text><text x="-10.252362" y="29.877319"><tspan fill="#555" x="-10.252362" y="46.677307"/></text><text x="161.66467" y="-143.85602"><tspan fill="#555" x="161.66467" y="-127.05603"/></text><g transform="matrix(.171875 0 0 .171875 0 2)"><path d="m11.6306 98.900977h110.5439v17.454303h-110.5439z" fill="url(#g)" opacity=".764706"/><path d="m11.637918 5.8181818h110.543902l-.007 87.2646952h-110.54422z" fill="url(#f)"/><path d="m40.7211 98.900977h-5.8181v17.454303h5.8181z" fill="url(#a)" stroke-width="1.259671"/><path d="m98.9021 98.900977h-5.8181v17.454303h5.8181z" fill="url(#h)"/><path d="m5.8125 98.900977h5.8181v17.454303h-5.8181z" fill="url(#i)"/><path d="m122.1745 98.900977h5.8181v17.454303h-5.8181z" fill="url(#j)"/><path d="m5.8125 93.082877h122.1801v5.818101h-122.1801z" fill="#fff" opacity=".650718"/><path d="m1 2.0019531v.9980469 3 .9980469 3 .0019531.998047 3 .001953.998047.005859 2.994141 1.005859h.9980469 4.0019531.9980469 4.0019531 1 4 1 4 1v-1.005859-2.994141h.001953v-1.003906-11.9980469h-5-1-4-1-4.001953-.9980469-4.0019531zm1 .9980469h4.0019531v3h-.0019531-4zm5 0h4.001953v3h-.001953-4zm5.001953 0h4v3h-.001953-3.998047zm5 0h4v3h-4zm-15.001953 3.9980469h4v3h-4zm5 0h4v3h-4zm5.001953 0h3.998047v3h-3.998047zm5 0h3.998047v3h-3.998047zm-15.001953 4.0000001h4v3h-4zm5 0h4v3h-4zm5.001953 0h3.998047v3h-3.998047zm5 0h3.998047v3h-3.998047zm-15.0039061 4.005859h.0019531 4v2.994141h-4.0019531zm5 0h.0019531 4v2.994141h-4.0019531zm5.0019531 0h.001953 3.998047v2.994141h-4zm5 0h.001953 3.998047v2.994141h-4z" fill="url(#c)" stroke-width=".171875" transform="matrix(5.8181818 0 0 5.8181818 0 -11.636364)"/><path d="m69.8116 98.900977h-5.8181v17.454303h5.8181z" fill="url(#b)" stroke-width="1.259671"/><path d="m40.7276 29.090909h23.2724v17.454546h-23.2724z" fill="url(#m)"/><path d="m6 6h-.00195v.9980469h.00195v3h-.00195v1.0000001h.00195 6v-1.0000001-3-.9980469zm5.001953 0h-.001953-4zm-4.001953.9980469h4v3h-4zm0 4.0000001h4z" fill="url(#d)" stroke-width=".171875" transform="matrix(5.8181818 0 0 5.8181818 0 -11.636364)"/><path d="m40.7211 98.900977h23.2724v17.454303h-23.2724z" fill="url(#n)" opacity=".764706"/><path d="m5 5v7h1 7v-1-6h-1-6zm1 1h6v5h-6z" fill="#fff" transform="matrix(5.8181818 0 0 5.8181818 0 -11.636364)"/><g transform="matrix(1.5 0 0 1.5 28.393174 35.441811)"><path d="m22.720703 5.15625c-3.013405.030675-5.734347 2.7794073-5.734375 5.792969v43.93164c.000396 3.429673 3.617041 6.371437 6.97461 5.671875l10.515624-2.189453 2.808594 2.027344c1.551689 1.121614 3.676784 1.397262 5.464844.712891.01127-.0042 1.189475-.440287 2.488281-1.167969.591578-.331442 1.457617-.847678 2.304688-1.658203.390507-.37366 1.041481-1.084667 1.507812-2.017578.576268-1.152849.952286-2.610783.501953-4.41211-.02267-.09068-.161327-.768547-.236328-1.123047l6.808594-4.601562c2.812058-1.90024 3.258266-6.468596.869141-8.878906v-.002l-30.101563-30.3710472c-1.08703-1.096551-2.62791-1.7300375-4.171875-1.7148438z" filter="url(#k)" opacity=".76"/><path d="m17.042969 8.3867188c-2.126608.021647-4.046855 1.9611722-4.046875 4.0878902v43.931641c.00014 1.210187.570764 2.408443 1.509765 3.171875.939002.763432 2.227365 1.076924 3.41211.830078l11.251953-2.341797 3.419922 2.466797c1.095643.791969 2.595135.987874 3.857422.503906h.002c.0091-.0034 1.09236-.410391 2.259765-1.064453.555108-.311009 1.260816-.734296 1.958985-1.402344.33225-.317916.804398-.831261 1.162109-1.546874.413737-.827699.696141-1.943955.373047-3.236329-.07021-.280852-.292605-1.376547-.484375-2.308593l7.755859-5.242188c.992424-.670628 1.662582-1.798167 1.779297-2.990234.116715-1.192068-.322513-2.426961-1.166015-3.277344l-30.10161-30.3730469c-.767134-.7738533-1.853759-1.2197068-2.943359-1.2089843z" fill="#fff" transform="translate(5.694915 -3.525424)"/><path d="m23.737884 11.281217v40.419921l11.863281-2.470703a.95888433.95888433 0 0 1 .755859.16211l4.425782 3.197265c.285679-.118453.599894-.234307 1.154297-.544922.384975-.215689.749087-.464247.9375-.644531.06051-.0579.06738-.07382.08789-.101562-.320785-1.338154-1.054687-5.009766-1.054687-5.009766a.95888433.95888433 0 0 1 .402343-.982422l9.074219-6.130859z" fill="url(#l)"/></g></g></svg>

<?xml version="1.0" encoding="UTF-8" standalone="no"?>
<svg
   xmlns:dc="http://purl.org/dc/elements/1.1/"
   xmlns:cc="http://creativecommons.org/ns#"
   xmlns:rdf="http://www.w3.org/1999/02/22-rdf-syntax-ns#"
   xmlns:svg="http://www.w3.org/2000/svg"
   xmlns="http://www.w3.org/2000/svg"
   xmlns:xlink="http://www.w3.org/1999/xlink"
   xmlns:sodipodi="http://sodipodi.sourceforge.net/DTD/sodipodi-0.dtd"
   xmlns:inkscape="http://www.inkscape.org/namespaces/inkscape"
   height="24"
   width="24"
   version="1.1"
   id="svg101"
   sodipodi:docname="lc_entirecell.svg"
   inkscape:version="0.92.4 (unknown)"
   inkscape:export-filename="/home/rizmut/Dokumen/Rizmut/Github/libreoffice-style-karasa-jaga/build/next/cmd/lc_entirecell.png"
   inkscape:export-xdpi="96"
   inkscape:export-ydpi="96">
  <metadata
     id="metadata107">
    <rdf:RDF>
      <cc:Work
         rdf:about="">
        <dc:format>image/svg+xml</dc:format>
        <dc:type
           rdf:resource="http://purl.org/dc/dcmitype/StillImage" />
        <dc:title></dc:title>
      </cc:Work>
    </rdf:RDF>
  </metadata>
  <defs
     id="defs105">
    <linearGradient
       inkscape:collect="always"
       xlink:href="#a"
       id="linearGradient937"
       gradientUnits="userSpaceOnUse"
       gradientTransform="matrix(-2.1818422,0,0,1.090921,151.265,-11.646415)"
       x1="53.332001"
       y1="101.334"
       x2="53.332001"
       y2="117.3336" />
    <linearGradient
       inkscape:collect="always"
       xlink:href="#a"
       id="linearGradient939"
       gradientUnits="userSpaceOnUse"
       gradientTransform="matrix(-2.1818422,0,0,1.090921,180.3555,-11.646415)"
       x1="53.332001"
       y1="101.334"
       x2="53.332001"
       y2="117.3336" />
    <linearGradient
       inkscape:collect="always"
       xlink:href="#h"
       id="linearGradient945"
       gradientUnits="userSpaceOnUse"
       gradientTransform="matrix(0.171875,0,0,0.171875,0.99902344,1.9985352)"
       x1="121.05164"
       y1="-40.916946"
       x2="121.05164"
       y2="98.914055" />
    <linearGradient
       inkscape:collect="always"
       xlink:href="#l"
       id="linearGradient952"
       gradientUnits="userSpaceOnUse"
       gradientTransform="matrix(0.171875,0,0,0.171875,0.99902344,1.9985352)"
       x1="121.05164"
       y1="-40.916946"
       x2="121.05164"
       y2="98.914055" />
  </defs>
  <sodipodi:namedview
     pagecolor="#ffffff"
     bordercolor="#666666"
     borderopacity="1"
     objecttolerance="10"
     gridtolerance="10"
     guidetolerance="10"
     inkscape:pageopacity="0"
     inkscape:pageshadow="2"
     inkscape:window-width="1366"
     inkscape:window-height="714"
     id="namedview103"
     showgrid="true"
     inkscape:zoom="14.75"
     inkscape:cx="10.089863"
     inkscape:cy="10.550027"
     inkscape:window-x="0"
     inkscape:window-y="28"
     inkscape:window-maximized="1"
     inkscape:current-layer="g935">
    <inkscape:grid
       type="xygrid"
       id="grid914" />
  </sodipodi:namedview>
  <linearGradient
     id="a">
    <stop
       offset="0"
       stop-color="#5c5c5c"
       id="stop2" />
    <stop
       offset="1"
       stop-color="#595959"
       stop-opacity=".488971"
       id="stop4" />
  </linearGradient>
  <linearGradient
     id="b"
     gradientTransform="matrix(1.0629486,0,0,1.0434896,5.961683,9.6024523)"
     gradientUnits="userSpaceOnUse"
     x1="46.048"
     x2="46.048"
     y1="128.01709"
     y2="16.6203">
    <stop
       offset="0"
       stop-color="#c7cdd7"
       id="stop7" />
    <stop
       offset="1"
       stop-color="#fff"
       id="stop9" />
  </linearGradient>
  <linearGradient
     id="c"
     gradientTransform="matrix(1.0629487,0,0,1.3091052,0.292763,-33.755894)"
     gradientUnits="userSpaceOnUse"
     x1="114.6638"
     x2="114.6638"
     y1="101.334"
     y2="112.0004">
    <stop
       offset="0"
       stop-color="#e1e4ea"
       id="stop12" />
    <stop
       offset="1"
       stop-color="#e1e4ea"
       stop-opacity=".084559"
       id="stop14" />
  </linearGradient>
  <linearGradient
     id="d"
     gradientTransform="matrix(1.5000376,0,0,1,11.999997,-13.334003)"
     gradientUnits="userSpaceOnUse"
     x1="53.332001"
     x2="53.332001"
     y1="101.334"
     y2="117.3336">
    <stop
       offset="0"
       stop-color="#58a11e"
       stop-opacity=".988235"
       id="stop17" />
    <stop
       offset="1"
       stop-color="#59a220"
       stop-opacity="0"
       id="stop19" />
  </linearGradient>
  <linearGradient
     id="e"
     gradientTransform="matrix(-2.1818422,0,0,1.090921,209.446,-11.646414)"
     gradientUnits="userSpaceOnUse"
     x1="53.332001"
     x2="53.332001"
     xlink:href="#a"
     y1="101.334"
     y2="117.3336" />
  <linearGradient
     id="f"
     gradientTransform="matrix(1.454525,0,0,0.87271499,-0.0056,22.102058)"
     gradientUnits="userSpaceOnUse"
     x1="8"
     x2="8"
     xlink:href="#a"
     y1="88"
     y2="108" />
  <linearGradient
     id="g"
     gradientTransform="matrix(1.4545249,0,0,0.872715,116.3564,22.102057)"
     gradientUnits="userSpaceOnUse"
     x1="8"
     x2="8"
     xlink:href="#a"
     y1="88"
     y2="108" />
  <linearGradient
     id="h"
     gradientUnits="userSpaceOnUse"
     x1="121.05164"
     x2="121.05164"
     y1="-40.916946"
     y2="98.914055"
     gradientTransform="translate(5.8125,-0.00852273)">
    <stop
       offset="0"
       stop-color="#fff"
       id="stop25" />
    <stop
       offset="1"
       stop-color="#555"
       id="stop27" />
  </linearGradient>
  <filter
     id="i"
     height="1.306617"
     width="1.43589"
     x="-0.21794499"
     y="-0.153309"
     style="color-interpolation-filters:sRGB">
    <feGaussianBlur
       stdDeviation="3.1542391"
       id="feGaussianBlur30" />
  </filter>
  <linearGradient
     id="j"
     gradientUnits="userSpaceOnUse"
     x1="32.81356"
     x2="28.745762"
     y1="44.474575"
     y2="19.254236">
    <stop
       offset="0"
       stop-color="#070707"
       id="stop33" />
    <stop
       offset="1"
       stop-color="#474747"
       id="stop35" />
  </linearGradient>
  <linearGradient
     id="k"
     gradientTransform="matrix(0.22377865,0,0,1.0434896,39.527644,9.6024523)"
     gradientUnits="userSpaceOnUse"
     x1="46.048"
     x2="46.048"
     y1="128.01709"
     y2="16.6203">
    <stop
       offset="0"
       stop-color="#f2fdeb"
       id="stop38" />
    <stop
       offset="1"
       stop-color="#c8ffa5"
       id="stop40" />
  </linearGradient>
  <linearGradient
     id="l"
     gradientUnits="userSpaceOnUse"
     x1="121.05164"
     x2="121.05164"
     y1="-40.916946"
     y2="98.914055"
     gradientTransform="translate(5.8125,-0.00852273)">
    <stop
       offset="0"
       stop-color="#5ca524"
       id="stop43" />
    <stop
       offset="1"
       stop-color="#58a11e"
       stop-opacity=".986274"
       id="stop45" />
  </linearGradient>
  <linearGradient
     id="m"
     gradientTransform="matrix(0.22377867,0,0,1.3091052,38.334187,-33.755894)"
     gradientUnits="userSpaceOnUse"
     x1="114.6638"
     x2="114.6638"
     y1="101.334"
     y2="112.0004">
    <stop
       offset="0"
       stop-color="#ddfec8"
       id="stop48" />
    <stop
       offset="1"
       stop-color="#dffecb"
       stop-opacity="0"
       id="stop50" />
  </linearGradient>
  <text
     x="552.36987"
     y="98.810379"
     id="text59">
    <tspan
       x="552.36987"
       y="115.61037"
       id="tspan57"
       style="fill:#555555" />
  </text>
  <text
     x="284.18808"
     y="98.810379"
     id="text71">
    <tspan
       x="284.18808"
       y="115.61037"
       id="tspan69"
       style="fill:#555555" />
  </text>
  <text
     x="-10.252362"
     y="29.877319"
     id="text75">
    <tspan
       x="-10.252362"
       y="46.677307"
       id="tspan73"
       style="fill:#555555" />
  </text>
  <text
     x="161.66467"
     y="-143.85602"
     id="text79">
    <tspan
       x="161.66467"
       y="-127.05603"
       id="tspan77"
       style="fill:#555555" />
  </text>
  <g
     id="g935"
     transform="matrix(0.171875,0,0,0.171875,0,2)">
    <path
       id="path53"
       d="M 11.6306,98.900977 H 122.1745 V 116.35528 H 11.6306 Z"
       style="opacity:0.764706;fill:url(#c)"
       inkscape:connector-curvature="0" />
    <path
       id="path55"
       d="M 11.637918,5.8181818 H 122.18182 l -0.007,87.2646952 H 11.6306 Z"
       style="fill:url(#b)"
       inkscape:connector-curvature="0"
       sodipodi:nodetypes="ccccc" />
    <path
       id="path61"
       d="M 40.7211,98.900977 H 34.903 v 17.454303 h 5.8181 z"
       style="fill:url(#linearGradient937);stroke-width:1.25967133;fill-opacity:1.0"
       inkscape:connector-curvature="0" />
    <path
       id="path63"
       d="M 98.9021,98.900977 H 93.084 v 17.454303 h 5.8181 z"
       style="fill:url(#e)"
       inkscape:connector-curvature="0" />
    <path
       id="path65"
       d="m 5.8125,98.900977 h 5.8181 V 116.35528 H 5.8125 Z"
       style="fill:url(#f);fill-opacity:1.0"
       inkscape:connector-curvature="0" />
    <path
       id="path67"
       d="m 122.1745,98.900977 h 5.8181 v 17.454303 h -5.8181 z"
       style="fill:url(#g)"
       inkscape:connector-curvature="0" />
    <path
       id="path81"
       d="m 5.8125,93.082877 h 122.1801 v 5.818101 H 5.8125 Z"
       inkscape:connector-curvature="0"
       style="opacity:0.650718;fill:#ffffff" />
    <path
       style="fill:url(#linearGradient945);stroke-width:0.171875"
       d="M 1 2.0019531 L 1 3 L 1 6 L 1 6.9980469 L 1 9.9980469 L 1 10 L 1 10.998047 L 1 13.998047 L 1 14 L 1 14.998047 L 1 15.003906 L 1 17.998047 L 1 19.003906 L 1.9980469 19.003906 L 6 19.003906 L 6.9980469 19.003906 L 11 19.003906 L 12 19.003906 L 16 19.003906 L 17 19.003906 L 21 19.003906 L 22 19.003906 L 22 17.998047 L 22 15.003906 L 22.001953 15.003906 L 22.001953 14 L 22.001953 2.0019531 L 17.001953 2.0019531 L 16.001953 2.0019531 L 12.001953 2.0019531 L 11.001953 2.0019531 L 7 2.0019531 L 6.0019531 2.0019531 L 2 2.0019531 L 1 2.0019531 z M 2 3 L 6.0019531 3 L 6.0019531 6 L 6 6 L 2 6 L 2 3 z M 7 3 L 11.001953 3 L 11.001953 6 L 11 6 L 7 6 L 7 3 z M 12.001953 3 L 16.001953 3 L 16.001953 6 L 16 6 L 12.001953 6 L 12.001953 3 z M 17.001953 3 L 21.001953 3 L 21.001953 6 L 17.001953 6 L 17.001953 3 z M 2 6.9980469 L 6 6.9980469 L 6 9.9980469 L 2 9.9980469 L 2 6.9980469 z M 7 6.9980469 L 11 6.9980469 L 11 9.9980469 L 7 9.9980469 L 7 6.9980469 z M 12.001953 6.9980469 L 16 6.9980469 L 16 9.9980469 L 12.001953 9.9980469 L 12.001953 6.9980469 z M 17.001953 6.9980469 L 21 6.9980469 L 21 9.9980469 L 17.001953 9.9980469 L 17.001953 6.9980469 z M 2 10.998047 L 6 10.998047 L 6 13.998047 L 2 13.998047 L 2 10.998047 z M 7 10.998047 L 11 10.998047 L 11 13.998047 L 7 13.998047 L 7 10.998047 z M 12.001953 10.998047 L 16 10.998047 L 16 13.998047 L 12.001953 13.998047 L 12.001953 10.998047 z M 17.001953 10.998047 L 21 10.998047 L 21 13.998047 L 17.001953 13.998047 L 17.001953 10.998047 z M 1.9980469 15.003906 L 2 15.003906 L 6 15.003906 L 6 17.998047 L 1.9980469 17.998047 L 1.9980469 15.003906 z M 6.9980469 15.003906 L 7 15.003906 L 11 15.003906 L 11 17.998047 L 6.9980469 17.998047 L 6.9980469 15.003906 z M 12 15.003906 L 12.001953 15.003906 L 16 15.003906 L 16 17.998047 L 12 17.998047 L 12 15.003906 z M 17 15.003906 L 17.001953 15.003906 L 21 15.003906 L 21 17.998047 L 17 17.998047 L 17 15.003906 z "
       transform="matrix(5.8181818,0,0,5.8181818,0,-11.636364)"
       id="path83" />
    <path
       id="path85"
       d="m 69.8116,98.900977 h -5.8181 v 17.454303 h 5.8181 z"
       style="fill:url(#linearGradient939);stroke-width:1.25967133;fill-opacity:1.0"
       inkscape:connector-curvature="0" />
    <path
       id="path87"
       d="M 40.7276,29.090909 H 64 V 46.545455 H 40.7276 Z"
       style="fill:url(#k)"
       inkscape:connector-curvature="0"
       sodipodi:nodetypes="ccccc" />
    <path
       style="fill:url(#linearGradient952);stroke-width:0.171875"
       d="m 6,6 h -0.00195 V 6.9980469 H 6 v 3 h -0.00195 V 10.998047 H 6 12 v -1.0000001 -3 V 6 Z m 5.001953,0 H 11 7 Z M 7,6.9980469 h 4 v 3 H 7 Z m 0,4.0000001 h 4 z"
       transform="matrix(5.8181818,0,0,5.8181818,0,-11.636364)"
       id="path89"
       inkscape:connector-curvature="0"
       sodipodi:nodetypes="ccccccccccccccccccccccccc" />
    <path
       id="path91"
       d="M 40.7211,98.900977 H 63.9935 V 116.35528 H 40.7211 Z"
       style="opacity:0.764706;fill:url(#m)"
       inkscape:connector-curvature="0" />
    <path
       style="opacity:1;fill:#ffffff;fill-opacity:1;stroke:none;stroke-width:0.5;stroke-miterlimit:4;stroke-dasharray:none;stroke-opacity:1"
       d="M 5 5 L 5 12 L 6 12 L 13 12 L 13 11 L 13 5 L 12 5 L 6 5 L 5 5 z M 6 6 L 12 6 L 12 11 L 6 11 L 6 6 z "
       transform="matrix(5.8181818,0,0,5.8181818,0,-11.636364)"
       id="rect993" />
    <g
       id="g99"
       transform="matrix(1.5,0,0,1.5,28.393174,35.441811)">
      <path
         id="path93"
         d="m 22.720703,5.15625 c -3.013405,0.030675 -5.734347,2.7794073 -5.734375,5.792969 v 43.93164 c 3.96e-4,3.429673 3.617041,6.371437 6.97461,5.671875 l 10.515624,-2.189453 2.808594,2.027344 c 1.551689,1.121614 3.676784,1.397262 5.464844,0.712891 0.01127,-0.0042 1.189475,-0.440287 2.488281,-1.167969 0.591578,-0.331442 1.457617,-0.847678 2.304688,-1.658203 0.390507,-0.37366 1.041481,-1.084667 1.507812,-2.017578 0.576268,-1.152849 0.952286,-2.610783 0.501953,-4.41211 -0.02267,-0.09068 -0.161327,-0.768547 -0.236328,-1.123047 L 56.125,46.123047 c 2.812058,-1.90024 3.258266,-6.468596 0.869141,-8.878906 v -0.002 L 26.892578,6.8710938 C 25.805548,5.7745428 24.264668,5.1410563 22.720703,5.15625 Z"
         inkscape:connector-curvature="0"
         style="opacity:0.76000001;filter:url(#i)" />
      <path
         id="path95"
         transform="translate(5.694915,-3.525424)"
         d="m 17.042969,8.3867188 c -2.126608,0.021647 -4.046855,1.9611722 -4.046875,4.0878902 V 56.40625 c 1.4e-4,1.210187 0.570764,2.408443 1.509765,3.171875 0.939002,0.763432 2.227365,1.076924 3.41211,0.830078 l 11.251953,-2.341797 3.419922,2.466797 c 1.095643,0.791969 2.595135,0.987874 3.857422,0.503906 h 0.002 c 0.0091,-0.0034 1.09236,-0.410391 2.259765,-1.064453 0.555108,-0.311009 1.260816,-0.734296 1.958985,-1.402344 0.33225,-0.317916 0.804398,-0.831261 1.162109,-1.546874 0.413737,-0.827699 0.696141,-1.943955 0.373047,-3.236329 -0.07021,-0.280852 -0.292605,-1.376547 -0.484375,-2.308593 l 7.755859,-5.242188 C 50.46708,45.5657 51.137238,44.438161 51.253953,43.246094 51.370668,42.054026 50.93144,40.819133 50.087938,39.96875 L 19.986328,9.5957031 C 19.219194,8.8218498 18.132569,8.3759963 17.042969,8.3867188 Z"
         inkscape:connector-curvature="0"
         style="fill:#ffffff" />
      <path
         id="path97"
         d="m 23.737884,11.281217 v 40.419921 l 11.863281,-2.470703 a 0.95888433,0.95888433 0 0 1 0.755859,0.16211 l 4.425782,3.197265 c 0.285679,-0.118453 0.599894,-0.234307 1.154297,-0.544922 0.384975,-0.215689 0.749087,-0.464247 0.9375,-0.644531 0.06051,-0.0579 0.06738,-0.07382 0.08789,-0.101562 -0.320785,-1.338154 -1.054687,-5.009766 -1.054687,-5.009766 a 0.95888433,0.95888433 0 0 1 0.402343,-0.982422 l 9.074219,-6.130859 z"
         style="fill:url(#j)"
         inkscape:connector-curvature="0" />
    </g>
  </g>
</svg>
